packages/forma-36-react-components/src/components/NavigationIcon/svg/Apps.svg

<svg viewBox="0 0 24 24" fill="none" xmlns="http://www.w3.org/2000/svg">
<path d="M18.3636 11.0909H19.2727C19.996 11.0909 20.6897 11.3782 21.2012 11.8897C21.7127 12.4012 22 13.0949 22 13.8182C22 14.5415 21.7127 15.2352 21.2012 15.7467C20.6897 16.2581 19.996 16.5455 19.2727 16.5455H18.3636V19.7273C18.3636 20.9782 17.3418 22 16.0909 22H12.1818V20.1818C12.1818 19.0782 11.2855 18.1818 10.1818 18.1818C9.07818 18.1818 8.18182 19.0782 8.18182 20.1818V22H4.27273C3.67041 21.9986 3.09316 21.7586 2.66726 21.3327C2.24135 20.9068 2.00144 20.3296 2 19.7273V15.8182H3.81818C4.92182 15.8182 5.81818 14.9218 5.81818 13.8182C5.81818 12.7145 4.92182 11.8182 3.81818 11.8182H2.00909V7.90909C2.00909 6.65727 3.02273 5.63636 4.27273 5.63636H7.45455V4.72727C7.45455 4.00395 7.74188 3.31026 8.25335 2.7988C8.76481 2.28734 9.4585 2 10.1818 2C10.9051 2 11.5988 2.28734 12.1103 2.7988C12.6218 3.31026 12.9091 4.00395 12.9091 4.72727V5.63636H16.0909C17.3418 5.63636 18.3636 6.65818 18.3636 7.90909V11.0909ZM16.0909 21.0909C16.84 21.0909 17.4545 20.4764 17.4545 19.7273V15.6364H19.2727C19.7549 15.6364 20.2174 15.4448 20.5584 15.1038C20.8994 14.7629 21.0909 14.3004 21.0909 13.8182C21.0909 13.336 20.8994 12.8735 20.5584 12.5325C20.2174 12.1916 19.7549 12 19.2727 12H17.4545V7.90909C17.4545 7.16 16.84 6.54545 16.0909 6.54545H12V4.72727C12 4.24506 11.8084 3.7826 11.4675 3.44162C11.1265 3.10065 10.664 2.90909 10.1818 2.90909C9.69961 2.90909 9.23715 3.10065 8.89617 3.44162C8.55519 3.7826 8.36364 4.24506 8.36364 4.72727V6.54545H4.27273C3.52636 6.54545 2.91818 7.15727 2.91818 7.90909V10.9091H3.81818C5.42364 10.9091 6.72727 12.2127 6.72727 13.8182C6.72727 15.4236 5.42364 16.7273 3.81818 16.7273H2.90909V19.7273C2.90909 20.4764 3.52364 21.0909 4.27273 21.0909H7.27273V20.1818C7.27273 18.5764 8.57636 17.2727 10.1818 17.2727C11.7873 17.2727 13.0909 18.5764 13.0909 20.1818V21.0909H16.0909Z" />
</svg>

<svg xmlns="http://www.w3.org/2000/svg" width="18" height="18" viewBox="0 0 24 24">
  <path d="M18.364 11.09h.909a2.727 2.727 0 110 5.456h-.91v3.181A2.278 2.278 0 0116.092 22h-3.91v-1.818a2.001 2.001 0 00-4 0V22H4.274A2.278 2.278 0 012 19.727v-3.909h1.818a2.001 2.001 0 000-4H2.01V7.91a2.27 2.27 0 012.264-2.273h3.182v-.909a2.727 2.727 0 115.454 0v.91h3.182a2.278 2.278 0 012.273 2.272v3.182zm-2.273 10c.749 0 1.363-.614 1.363-1.363v-4.09h1.819a1.818 1.818 0 000-3.637h-1.819V7.91c0-.75-.614-1.365-1.363-1.365H12V4.727a1.818 1.818 0 00-3.636 0v1.818H4.273c-.747 0-1.355.612-1.355 1.364v3h.9a2.91 2.91 0 012.91 2.91 2.91 2.91 0 01-2.91 2.908H2.91v3c0 .75.615 1.364 1.364 1.364h3v-.91a2.91 2.91 0 012.909-2.908 2.91 2.91 0 012.909 2.909v.909h3z" />
</svg>
